X:279
T:Troy's Wedding
C:Joe Buchanan's Scottish Tome - Page 321.2
I:321 2
C:Colin Macree
Z:Carl Allison
R:Jig
L:1/8
M:6/8
K:D
"D"AAA d2 c | "G"BBB "E7"e2 d | "A7"cAA ABc | "D"AAA d2 c | "G"BBB "E7"e2 d | "A7"caa gec | "A7"ABc "D"d3 :|
f | "A7"gee ege | "D"fdd dfd | "A7"ecA ABc | "D"dcd f2 d | "A7"gdd ege | "A7"caa gec | "A7"ABc "D"d3 :|
"A7"Aaa Bgc | "D"aad aea | "D"faa "A7"gec | "D"dcd f2 d | "A7"Aaa Bac | "D"aad aea | "D"faa "A7"gec | "A7"ABc "D"d3 :|
"A7"Acc cee | "D"Add dff | "A7"ecA ABc | "D"dcd f2 d | "A7"AAA cAA | "D"dAd fdd | "A7"caa gec | "A7"ABc d3 |
"A7"AcA ecA | "D"AdA fdA | "A7"ecA ABc | "D"dcdf2 d | "G"BGG Bcd | "D"Add fdd | "A7"caa gec | "A7"ABc "D"d3 |

